public/svg/phone2.svg

<svg width="81" height="80" viewBox="0 0 81 80" fill="none" xmlns="http://www.w3.org/2000/svg">
<rect x="0.5" width="80" height="80" rx="40" fill="#F4F7FF"/>
<path fill-rule="evenodd" clip-rule="evenodd" d="M40.3578 43.5712L44.0312 39.8978C45.0457 38.8833 45.2973 37.3334 44.6556 36.0501L44.4475 35.6338C43.8058 34.3505 44.0573 32.8006 45.0719 31.7861L49.6266 27.2314C49.952 26.9059 50.4796 26.9059 50.8051 27.2314C50.8684 27.2947 50.9211 27.3678 50.9612 27.448L52.8011 31.1279C54.2087 33.9431 53.657 37.3431 51.4314 39.5687L41.4333 49.5667C39.0108 51.9893 35.4274 52.8352 32.1772 51.7518L28.153 50.4104C27.7164 50.2649 27.4805 49.793 27.626 49.3564C27.6669 49.2336 27.7358 49.1221 27.8273 49.0306L32.2461 44.6118C33.2606 43.5973 34.8105 43.3458 36.0938 43.9874L36.5101 44.1956C37.7934 44.8372 39.3433 44.5857 40.3578 43.5712Z" fill="#1B5BF7"/>
</svg>

<svg xmlns="http://www.w3.org/2000/svg" width="81" height="80" fill="none" xmlns:v="https://vecta.io/nano"><rect x=".5" width="80" height="80" rx="40" fill="#f4f7ff"/><path fill-rule="evenodd" d="M40.358 43.571l3.673-3.673c1.014-1.014 1.266-2.564.624-3.848l-.208-.416c-.642-1.283-.39-2.833.624-3.848l4.555-4.555c.325-.326.853-.326 1.178 0 .063.063.116.136.156.217l1.84 3.68c1.408 2.815.856 6.215-1.37 8.441l-9.998 9.998c-2.422 2.423-6.006 3.269-9.256 2.185l-4.024-1.341c-.437-.146-.672-.617-.527-1.054.041-.123.11-.234.201-.326l4.419-4.419c1.014-1.015 2.564-1.266 3.848-.624l.416.208c1.283.642 2.833.39 3.848-.624z" fill="#1b5bf7"/></svg>
